X:1
T:James Gibb editions
T:Psalm 116 (Becker) - Schütz
%%score [ 1 2 3 4 ]
L:1/8
Q:1/4=98
M:2/2
K:C
V:1 treble nm="Soprano Alto" snm="S "
V:2 treble nm="Alto" snm="A"
V:3 treble-8 nm="Tenor" snm="T"
V:4 bass nm="Tenor Bass" snm="B"
V:1
"^Cornelius Becker\n(1561-1604)""^Psalm 116, SWV 214""^Heinrich Schütz\n(1585-1672)" A4 D4 | %1
w: ~~~Mein'm Her-|
w: wenn in|
 F2 G4 A2 | _B2 A2 G4 | A4 !courtesy!=B4 | c2 d4 e2 | c2 B2 A4 :|[M:2/2] c4 A2 A2 | F4 F4 | %8
w: zen ists ein|gro- ße Freud,|daß Gott|mich hö- ret|al- le- zeit,|er neigt sein|Ohr, gibt|
w: der Not ich|ruf zu ihm,|er- hört|er mei- nes|Fle- hens Stimm,|||
 _B2 B2 A4 | G4 F4 | C4 EF G2- | G2 F2 E4 | E4 F2 G2 | (A3 B c2) G2 | F4 E4 | D8 |] %16
w: mir in Gnad|Ge- hör,|da- rum * *|* mit Dank|ruf ich ihn|an * * mein|Le- ben|lang.|
w: ||||||||
V:2
 D4 A,4 | A,2 C4 C2 | D2 F2 E4 | C4 E4 | E2 A,4 C2 | E2 E2 E4 :|[M:2/2] F4 F2 F2 | D4 D4 | %8
w: ~~~Mein'm Her-|zen ists ein|gro- ße Freud,|daß Gott|mich hö- ret|al- le- zeit,|er neigt sein|Ohr, gibt|
w: wenn in|der Not ich|ruf zu ihm,|er- hört|er mei- nes|Fle- hens Stimm,|||
 G2 G4 F2- | F2 E2 F4- | F2 F,2 G,4 | (A,2 !courtesy!=B,2) C4 | ^C4 D2 E2 | (=C2 F4) E2- | %14
w: mir in Gnad|* Ge- hör|* da- rum|mit * Dank|ruf ich ihn|an * mein|
w: ||||||
 E2 D4 ^C2 | D8 |] %16
w: * Le- ben|lang.|
w: ||
V:3
 F4 F4 | D2 E4 E2 | G2 c2 c4 | A4 ^G4 | A2 F4 G2 | A2 ^G2 A4 :|[M:2/2][K:treble-8] A4 c2 c2 | %7
w: ~~~Mein'm Her-|zen ists ein|gro- ße Freud,|daß Gott|mich hö- ret|al- le- zeit,|er neigt sein|
w: wenn in|der Not ich|ruf zu ihm,|er- hört|er mei- nes|Fle- hens Stimm,||
 _B4 B4 | d2 d2 c4 | c4 c4 | A4 (c2 !courtesy!=B2) | d4 G4 | A4 A2 c2 | A4 G2 (c_B | AG A4) A2 | %15
w: Ohr, gibt|mir in Gnad|Ge- hör|da- rum *|mit Dank|ruf ich ihn|an mein Le\- *|* * * ben|
w: ||||||||
 A8 |] %16
w: lang.|
w: |
V:4
 D,4 D,4 | D,2 C,4 A,,2 | G,,2 F,,2 C,4 | F,4 E,4 | A,,2 D,4 C,2 | A,,2 E,2 A,,4 :| %6
w: ~~~Mein'm Her-|zen ists ein|gro- ße Freud,|daß Gott|mich hö- ret|al- le- zeit,|
w: wenn in|der Not ich|ruf zu ihm,|er- hört|er mei- nes|Fle- hens Stimm,|
[M:2/2] F,4 F,2 F,2 | _B,,4 B,,4 | G,,2 G,,2 (A,,3 _B,, | C,2) C,2 F,4 | F,4 (C,2 E,2) | D,4 C,4 | %12
w: er neigt sein|Ohr, gibt|mir in Gnad *|* Ge- hör,|da- rum *|mit Dank|
w: ||||||
"^2. Des Todes Strick umfingen mich,\nHöllenpein quält mich ängstiglich,\nich kam in Jammer, Angst und Not\nund war betrübt bis in den Tod, \ndes Herren Nam \nin Trübsal rief ich an,\naus Not und Pein\n half er der armen Seelen mein.\n\n3. Gnädig ist Gott, gerecht allzeit, \ngroß ist seine Barmherzigkeit, \nden frommen Herzen hilft er wohl, \nder Elend auf ihn trauen soll.\nIch war in Not \nmir half der treue Gott. \nDrum, meine Seel, \nin Gott dich nur zufrieden stell." A,,4 D,2 C,2 | %13
w: ruf ich ihn|
w: |
 F,4"^6. Wie soll ich, Herr, vergelten dir,\ndas Gute, so du tust an mir? \nIch will von deiner Hand fortan \nden heilsamen Kelch nehmen an, \ndurch reine Lehr\nausbreiten deine Ehr, \nmein G'lübde all \nvor deinem Volk ich willig zahl.\n\n8. Was ich gelobt, bezahl ich recht\nHerren als ein treuer Knecht, \nwill vor sein'm Volk willig und gern \nrühmen und preisen meinen Herrn. \nIn Gottes Haus \nwill ich gehn ein und aus\nund singen frei: \nHalleluja, Gott wohn uns bei." C,4 | %14
w: an mein|
w: |
 D,4 A,,4 | D,8 |] %16
w: Le- ben|lang.|
w: ||

